!! 00049] TT[KA
!! NN
!!!OTL: Fangma Shange
!!!ARE: Asia, China,ÿYunnan
!! Ethnic Group: Han
!! II, 78
!!!SCT: C0213
!!!YEM: Copyright 1995, estate of Helmut Schaffrath.
**kern
*ICvox
*Ivox
*M2/4
*k[f#c#]
*D:
{8.ff#
16ff#
16ff#
16ee
8dd
=1
16.ff#
32ff#
16ff#
16ee
16dd
16ee
16ff#
16ee
=2
8.ee
16dd
4b}
=3
{8.ff#
16ee
16ff#
16ee
8dd
=4
16ee
16ff#
16ee
16dd
8b
8r
=5
8ee
16ee
16dd
4b}
=6
{8.ff#
16ff#
16ff#
16ee
16dd
16b
=7
16.ff#
32ff#
16ff#
16ee
16dd
16ee
16ff#
16ee
=8
8.ee
16dd
4b}
=9
{8.ff#
16ff#
16ff#
16ee
8dd
=10
8ee
16ee
16dd
8.b
16r
=11
8ee
16ee
16dd
8b
8r}
=12
{8.ff#
16ff#
16ff#
16ee
8dd
=13
16.ff#
32ff#
16ff#
16ee
16dd
16ee
16ff#
16ee
=14
8.ee
16dd
4b}
=15
{8.ff#
16ee
16ff#
16ee
8dd
=16
16ee
16ff#
16ee
16dd
8b
8r
=17
8ee
16ee
16dd
4b}
==
!!!AGN: Shange. Muma shenghuo
!! In Klammerm stehen Lockrufe fuer Pferde.
!!    Vor- und Zwischenspiel weggelassen. 0___0___ mit Fuellwoertern
!!    Lockrufe?) unterlegt!
!!!ONB: ESAC (Essen Associative Code) Database: CHINA
!!!AMT: simple duple
!!!AIN: vox
!!!EED: Helmut Schaffrath
!!!EEV: 1.0
*-
